src/pages/styleguide/styleguide-open-contour.svg

<?xml version="1.0" encoding="UTF-8"?>
<svg xmlns="http://www.w3.org/2000/svg" xmlns:xlink="http://www.w3.org/1999/xlink" width="630px" height="px" viewBox="0 0 630 272" version="1.1">
<g id="surface1">
<path style="fill:none;stroke-width:2;stroke-linecap:round;stroke-linejoin:round;stroke:rgb(0%,0%,0%);stroke-opacity:1;stroke-miterlimit:10;" d="M 12.459913 35.739705 C 10.126946 36.739993 7.543251 36.572991 7.543251 36.572991 C 5.866297 36.719333 4.428049 32.563231 5.058302 31.840132 L 8.376147 26.740557 L 6.626207 23.323051 C 6.626207 23.323051 11.633886 21.908702 14.508665 25.413153 C 14.852986 25.833239 15.302921 26.156052 15.788062 26.400528 C 15.818115 26.415163 15.848168 26.430658 15.879079 26.446153 C 18.472219 27.734819 21.425135 28.017173 24.263851 27.443858 C 31.486002 25.986468 38.33378 26.074273 45.963793 29.656199 C 53.589513 33.238985 60.493962 27.405981 59.604395 22.155761 C 58.810997 17.508985 63.166098 14.572684 66.354286 17.156043 " transform="matrix(4.549263,0,0,4.537756,-17.593579,7.138341)"/>
<path style="fill:none;stroke-width:2;stroke-linecap:round;stroke-linejoin:round;stroke:rgb(0%,0%,0%);stroke-opacity:1;stroke-miterlimit:10;" d="M 16.049952 48.820062 C 16.651011 46.613747 24.541196 45.171852 24.541196 45.171852 C 24.541196 45.171852 27.768882 43.97099 25.967423 40.667974 " transform="matrix(4.549263,0,0,4.537756,-17.593579,7.138341)"/>
<path style="fill:none;stroke-width:2;stroke-linecap:round;stroke-linejoin:round;stroke:rgb(0%,0%,0%);stroke-opacity:1;stroke-miterlimit:10;" d="M 18.299629 33.239846 C 16.756625 35.074281 14.407344 38.043294 17.859998 42.398248 C 17.859998 42.398248 11.104096 45.251048 11.853702 50.43068 C 11.853702 50.43068 12.216055 52.907297 14.25622 52.833265 " transform="matrix(4.549263,0,0,4.537756,-17.593579,7.138341)"/>
<path style="fill:none;stroke-width:2;stroke-linecap:round;stroke-linejoin:round;stroke:rgb(0%,0%,0%);stroke-opacity:1;stroke-miterlimit:10;" d="M 23.499647 50.030393 C 22.343897 57.283772 25.885851 56.084631 26.516963 55.691231 C 27.664985 54.973296 28.364789 45.837276 30.469354 44.380746 C 32.061301 43.277158 38.636027 44.078594 38.636027 44.078594 " transform="matrix(4.549263,0,0,4.537756,-17.593579,7.138341)"/>
<path style="fill:none;stroke-width:2;stroke-linecap:round;stroke-linejoin:round;stroke:rgb(0%,0%,0%);stroke-opacity:1;stroke-miterlimit:10;" d="M 38.440253 41.329954 C 38.531271 43.07228 39.193294 44.731966 40.173879 46.174722 C 40.835902 47.147463 41.977056 48.494667 41.626724 49.160091 C 37.147977 57.659956 42.249249 56.181905 42.710347 55.327098 C 45.897677 49.409732 48.835137 51.222647 47.357391 44.806859 C 47.357391 44.806859 52.62696 42.997388 52.876829 36.83038 " transform="matrix(4.549263,0,0,4.537756,-17.593579,7.138341)"/>
<path style="fill:none;stroke-width:2;stroke-linecap:round;stroke-linejoin:round;stroke:rgb(0%,0%,0%);stroke-opacity:1;stroke-miterlimit:10;" d="M 48.14993 45.590217 C 48.14993 45.590217 50.517244 48.794237 55.907883 48.282902 C 55.907883 48.282902 52.58231 55.044745 55.907883 55.902995 C 57.825261 56.397114 60.62963 44.743157 60.62963 44.743157 C 60.62963 44.743157 58.791248 43.949469 56.678956 40.561231 " transform="matrix(4.549263,0,0,4.537756,-17.593579,7.138341)"/>
<path style="fill:none;stroke-width:2;stroke-linecap:round;stroke-linejoin:round;stroke:rgb(0%,0%,0%);stroke-opacity:1;stroke-miterlimit:4;" d="M 52.62023 31.130202 L 54.419929 8.949763 C 54.077306 3.985583 47.64103 3.929579 47.1932 8.924056 L 44.773428 26.284457 C 44.472702 28.463114 43.495111 30.246069 42.606899 30.246069 C 41.718687 30.246069 40.761579 28.461278 40.481336 26.278948 L 38.249634 8.938746 C 37.430319 3.660574 30.810628 4.617237 31.212837 8.939664 L 33.739678 29.96972 " transform="matrix(4.195579,0,0,4.254699,397.231579,-17.965268)"/>
<path style="fill:none;stroke-width:2;stroke-linecap:round;stroke-linejoin:round;stroke:rgb(0%,0%,0%);stroke-opacity:1;stroke-miterlimit:4;" d="M 53.630407 50.079837 C 53.630407 59.952194 45.610433 66.96007 35.739551 66.96007 " transform="matrix(4.195579,0,0,4.254699,397.231579,-17.965268)"/>
<path style="fill:none;stroke-width:2;stroke-linecap:round;stroke-linejoin:round;stroke:rgb(0%,0%,0%);stroke-opacity:1;stroke-miterlimit:4;" d="M 43.739974 47.289724 L 43.739974 44.956825 C 43.739974 43.856939 41.951447 42.757052 39.764435 42.515591 L 38.715154 42.398992 C 36.528142 42.156613 34.738684 40.548097 34.738684 38.624672 C 34.738684 36.702166 36.539314 35.291042 38.739361 35.291042 L 48.738726 35.291042 C 50.939703 35.246055 52.796196 36.923428 52.974025 39.116775 L 53.631339 50.326807 " transform="matrix(4.195579,0,0,4.254699,397.231579,-17.965268)"/>
<path style="fill:none;stroke-width:2;stroke-linecap:round;stroke-linejoin:round;stroke:rgb(0%,0%,0%);stroke-opacity:1;stroke-miterlimit:4;" d="M 37.960081 50.359859 C 39.590331 48.879877 41.583687 47.859865 43.737181 47.401732 " transform="matrix(4.195579,0,0,4.254699,397.231579,-17.965268)"/>
<path style="fill:none;stroke-width:2;stroke-linecap:round;stroke-linejoin:miter;stroke:rgb(0%,0%,0%);stroke-opacity:1;stroke-miterlimit:10;" d="M 18.530216 52.099663 C 19.67167 60.700447 27.06878 67.080342 35.739551 66.96007 C 45.406535 66.96007 53.630407 60.126633 53.630407 50.079837 " transform="matrix(4.195579,0,0,4.254699,397.231579,-17.965268)"/>
<path style="fill:none;stroke-width:2;stroke-linecap:round;stroke-linejoin:round;stroke:rgb(0%,0%,0%);stroke-opacity:1;stroke-miterlimit:4;" d="M 31.750047 49.719941 C 31.750047 50.977742 31.078767 52.140059 29.990382 52.768042 C 28.901066 53.396024 27.559438 53.396942 26.470121 52.768042 C 25.380805 52.139141 24.710456 50.976824 24.710456 49.719941 L 24.710456 33.759647 C 24.710456 32.501847 25.380805 31.340447 26.470121 30.711547 C 27.559438 30.083565 28.901066 30.083565 29.990382 30.711547 C 31.078767 31.340447 31.750047 32.502765 31.750047 33.760565 Z M 31.750047 49.719941 " transform="matrix(4.195579,0,0,4.254699,397.231579,-17.965268)"/>
<path style="fill:none;stroke-width:2;stroke-linecap:round;stroke-linejoin:round;stroke:rgb(0%,0%,0%);stroke-opacity:1;stroke-miterlimit:4;" d="M 24.710456 44.9403 C 24.710456 46.201772 24.039177 47.366844 22.949861 47.997581 C 21.860544 48.629235 20.518916 48.629235 19.4296 47.997581 C 18.341215 47.366844 17.669935 46.201772 17.669935 44.9403 L 17.669935 37.003303 C 17.669935 35.740912 18.341215 34.57584 19.4296 33.945104 C 20.518916 33.314367 21.860544 33.314367 22.949861 33.945104 C 24.039177 34.57584 24.710456 35.740912 24.710456 37.003303 Z M 24.710456 44.9403 " transform="matrix(4.195579,0,0,4.254699,397.231579,-17.965268)"/>
<path style="fill:none;stroke-width:3;stroke-linecap:butt;stroke-linejoin:miter;stroke:rgb(88.627451%,43.921569%,13.333333%);stroke-opacity:1;stroke-miterlimit:10;" d="M 35.90067 74.499153 C 35.90067 81.624928 30.123977 87.399385 23.000744 87.399385 C 15.875744 87.399385 10.100818 81.624928 10.100818 74.499153 C 10.100818 67.375144 15.875744 61.600686 23.000744 61.600686 C 30.123977 61.600686 35.90067 67.375144 35.90067 74.499153 Z M 35.90067 74.499153 " transform="matrix(2.210526,0,0,2.211382,0,0)"/>
<path style="fill:none;stroke-width:3;stroke-linecap:butt;stroke-linejoin:miter;stroke:rgb(88.627451%,43.921569%,13.333333%);stroke-opacity:1;stroke-miterlimit:10;" d="M 232.000744 87.199779 C 232.000744 96.86568 224.165365 104.699793 214.499256 104.699793 C 204.834914 104.699793 196.999535 96.86568 196.999535 87.199779 C 196.999535 77.535645 204.834914 69.699764 214.499256 69.699764 C 224.165365 69.699764 232.000744 77.535645 232.000744 87.199779 Z M 232.000744 87.199779 " transform="matrix(2.210526,0,0,2.211382,0,0)"/>
</g>
</svg>

<svg width="285.4" height="122.6" viewBox="0 0 285.4 122.6" version="1.1" xmlns="http://www.w3.org/2000/svg">
  <g id="line" transform="matrix(2.058 0 0 2.052 -7.959 3.228)" stroke-miterlimit="10">
    <path fill="none" stroke="#000" stroke-linecap="round" stroke-linejoin="round" stroke-miterlimit="10" stroke-width="2" d="m12.46 35.74c-2.333 1-4.917 0.8333-4.917 0.8333-1.677 0.1458-3.115-4.01-2.485-4.733l3.318-5.1-1.75-3.417s5.008-1.415 7.883 2.09c0.3444 0.42 0.7943 0.7429 1.279 0.9871 0.0298 0.015 0.0602 0.0302 0.0912 0.0456 2.593 1.289 5.546 1.571 8.385 0.9981 7.222-1.458 14.07-1.37 21.7 2.212 7.625 3.583 14.53-2.25 13.64-7.5-0.793-4.647 3.562-7.583 6.75-5"/>
    <path fill="none" stroke="#000" stroke-linecap="round" stroke-linejoin="round" stroke-miterlimit="10" stroke-width="2" d="m16.05 48.82c0.6006-2.206 8.491-3.648 8.491-3.648s3.228-1.201 1.426-4.504"/>
    <path fill="none" stroke="#000" stroke-linecap="round" stroke-linejoin="round" stroke-miterlimit="10" stroke-width="2" d="m18.3 33.24c-1.543 1.834-3.893 4.803-0.44 9.158 0 0-6.756 2.853-6.006 8.033 0 0 0.3624 2.476 2.402 2.402"/>
    <path fill="none" stroke="#000" stroke-linecap="round" stroke-linejoin="round" stroke-miterlimit="10" stroke-width="2" d="m23.5 50.03c-1.156 7.254 2.386 6.055 3.017 5.661 1.148-0.7173 1.848-9.854 3.952-11.31 1.592-1.104 8.167-0.3021 8.167-0.3021"/>
    <path fill="none" stroke="#000" stroke-linecap="round" stroke-linejoin="round" stroke-miterlimit="10" stroke-width="2" d="m38.44 41.33c0.0911 1.742 0.7529 3.402 1.734 4.845 0.6616 0.9727 1.803 2.32 1.453 2.985-4.479 8.5 0.6224 7.022 1.083 6.167 3.188-5.917 6.125-4.104 4.647-10.52 0 0 5.27-1.81 5.52-7.977"/>
    <path fill="none" stroke="#000" stroke-linecap="round" stroke-linejoin="round" stroke-miterlimit="10" stroke-width="2" d="m48.15 45.59s2.367 3.204 7.758 2.693c0 0-3.326 6.762 0 7.62 1.917 0.4941 4.722-11.16 4.722-11.16s-1.839-0.7937-3.951-4.182"/>
  </g>
  <g transform="matrix(1.898 0 0 1.924 179.7 -8.124)">
    <path fill="none" stroke="#000" stroke-linecap="round" stroke-linejoin="round" stroke-width="2" d="m52.62 31.13 1.8-22.18c-0.3427-4.964-6.779-5.02-7.227-0.026l-2.42 17.36c-0.3 2.179-1.278 3.962-2.166 3.962s-1.845-1.785-2.126-3.967l-2.231-17.34c-0.8196-5.278-7.439-4.322-7.037 0.0011l2.527 21.03"/>
    <path fill="none" stroke="#000" stroke-linecap="round" stroke-linejoin="round" stroke-width="2" d="m18.38 49.62"/>
    <path fill="none" stroke="#000" stroke-linecap="round" stroke-linejoin="round" stroke-width="2" d="m53.63 50.08c0 9.872-8.02 16.88-17.89 16.88"/>
    <path fill="none" stroke="#000" stroke-linecap="round" stroke-linejoin="round" stroke-width="2" d="m43.74 47.29v-2.333c0-1.1-1.789-2.2-3.976-2.441l-1.049-0.117c-2.187-0.242-3.976-1.851-3.976-3.774s1.8-3.334 4-3.334h10c2.201-0.0448 4.057 1.632 4.235 3.826l0.657 11.21"/>
    <path fill="none" stroke="#000" stroke-linecap="round" stroke-linejoin="round" stroke-width="2" d="m37.96 50.36c1.63-1.48 3.624-2.5 5.777-2.958"/>
    <path fill="none" stroke="#000" stroke-linecap="round" stroke-miterlimit="10" stroke-width="2" d="m18.53 52.1c1.142 8.6 8.539 14.98 17.21 14.86 9.667 0 17.89-6.833 17.89-16.88"/>
    <path fill="none" stroke="#000" stroke-linecap="round" stroke-linejoin="round" stroke-width="2" d="m31.75 49.72c0 1.258-0.6709 2.42-1.76 3.048s-2.431 0.6288-3.52 0-1.76-1.791-1.76-3.048v-15.96c0-1.258 0.6709-2.42 1.76-3.048s2.431-0.6288 3.52 0c1.089 0.6288 1.76 1.791 1.76 3.049z" paint-order="normal"/>
    <path fill="none" stroke="#000" stroke-linecap="round" stroke-linejoin="round" stroke-width="2" d="m24.71 44.94c0 1.262-0.6709 2.427-1.76 3.058s-2.431 0.6308-3.52 0c-1.089-0.6308-1.76-1.796-1.76-3.058v-7.937c0-1.262 0.6709-2.427 1.76-3.058 1.089-0.6308 2.431-0.6308 3.52 0s1.76 1.796 1.76 3.058z" paint-order="normal"/>
  </g>
  <circle cx="23" cy="74.5" r="12.9" fill="none" stroke="#E27022" stroke-miterlimit="10" stroke-width="3"/>
  <circle cx="214.5" cy="87.2" r="17.5" fill="none" stroke="#E27022" stroke-miterlimit="10" stroke-width="3"/>
</svg>
